src/components/icons/ApparelsIcon.svg

<svg width="36" height="36" viewBox="0 0 36 36" fill="none" xmlns="http://www.w3.org/2000/svg">
<path fill-rule="evenodd" clip-rule="evenodd" d="M18 9.89675C17.2723 9.87433 16.064 9.73884 15.1523 8.84182C13.5776 7.29244 12.1377 5.14285 9.92856 5.14285H7.63505C5.78526 5.14285 4.28571 6.6424 4.28571 8.49219V9.05582C4.28571 10.5943 5.53291 11.8415 7.07142 11.8415C8.60993 11.8415 9.85713 13.0887 9.85713 14.6272V26.8571C9.85713 29.0663 11.648 30.8571 13.8571 30.8571H18H22.1428C24.352 30.8571 26.1428 29.0663 26.1428 26.8571V14.6272C26.1428 13.0887 27.3901 11.8415 28.9286 11.8415C30.4671 11.8415 31.7143 10.5943 31.7143 9.05582V8.49219C31.7143 6.6424 30.2147 5.14285 28.3649 5.14285H26.0714C23.8623 5.14285 22.4224 7.29244 20.8477 8.84182C19.936 9.73884 18.7277 9.87433 18 9.89675Z" fill="#FF3D00"/>
<path d="M26.1428 14.6272V26.8571C26.1428 29.0663 24.352 30.8571 22.1428 30.8571H13.8571C16.619 30.1324 20.7857 20.1831 22.1428 11.8415C23.5 3.5 28.9285 11.8415 28.9285 11.8415C27.39 11.8415 26.1428 13.0887 26.1428 14.6272Z" fill="black" fill-opacity="0.15"/>
</svg>

<svg width="36" height="36" fill="none" xmlns="http://www.w3.org/2000/svg"><path fill-rule="evenodd" clip-rule="evenodd" d="M18 9.897c-.728-.023-1.936-.158-2.848-1.055-1.574-1.55-3.014-3.7-5.223-3.7H7.635a3.35 3.35 0 00-3.35 3.35v.564a2.786 2.786 0 002.786 2.786 2.786 2.786 0 012.786 2.785v12.23a4 4 0 004 4h8.286a4 4 0 004-4v-12.23a2.786 2.786 0 012.786-2.786 2.786 2.786 0 002.785-2.785v-.564c0-1.85-1.5-3.35-3.35-3.35h-2.293c-2.209 0-3.649 2.15-5.223 3.7-.912.897-2.12 1.032-2.848 1.055z" fill="#FF3D00"/><path d="M26.143 14.627v12.23a4 4 0 01-4 4h-8.286c2.762-.725 6.929-10.674 8.286-19.015 1.357-8.342 6.785 0 6.785 0a2.786 2.786 0 00-2.785 2.785z" fill="#000" fill-opacity=".15"/></svg>
